rospo-dark/medium/start/rosa.svg

<svg height="32" width="32" xmlns="http://www.w3.org/2000/svg"><path d="m0 0h32v32h-32z" fill="none"/><path d="m16.203125 2.4355469c-7.5230695 0-13.6386719 6.1215387-13.6386719 13.6484371 0 7.526901 6.1156114 13.648438 13.6386719 13.648438 7.523062 0 13.640625-6.121476 13.640625-13.648438 0-7.5269592-6.117554-13.6484371-13.640625-13.6484371zm0 1.8964843c6.497032.0000002 11.742187 5.2497579 11.742187 11.7519528 0 6.502198-5.245144 11.751954-11.742187 11.751954-6.4970407 0-11.7441406-5.249757-11.7441406-11.751954 0-6.5021949 5.24711-11.7519526 11.7441406-11.7519528zm6.636719 3.4804688-.355469.03125-.353516.0332031-.349609.03125c-1.721043.1557126-2.756784.4148649-6.470703.703125-4.205945.3264475-7.6353456 3.7343289-7.4570314 8.1171879.1761785 4.330326 3.5332114 7.919922 7.8847654 7.919922 4.350623 0 7.886719-3.579744 7.886719-7.958985-.0046-2.566662-.863327-5.284959-.808594-7.8164061zm-2.919922 2.230469c-.378966.752355-.848578 1.851581-1.66211 4.003906-1.016331 2.688859-2.51407 3.916095-4.039062 4.566406-1.394138.594511-2.807393.652094-3.841797.640625-.366212-.786797-.590803-1.665031-.6289061-2.601562-.1369996-3.367399 2.4186861-5.895017 5.7089841-6.150391 2.329803-.180836 3.474793-.328871 4.462891-.458984zm1.246094 1.615234c.218856 1.876082.559939 3.63058.5625 5.033203-.000285 3.36401-2.675351 6.058594-5.990235 6.058594-1.623456 0-3.057341-.646746-4.117187-1.705078.976471-.065496 2.119133-.242499 3.304687-.748047 1.920245-.818857 3.85746-2.502574 5.027344-5.597656.57093-1.510488.924554-2.380981 1.212891-3.041016z" fill="#d3dae3" fill-rule="evenodd"/></svg>

<?xml version="1.0" encoding="UTF-8" standalone="no"?>
<svg
   xmlns:dc="http://purl.org/dc/elements/1.1/"
   xmlns:cc="http://creativecommons.org/ns#"
   xmlns:rdf="http://www.w3.org/1999/02/22-rdf-syntax-ns#"
   xmlns:svg="http://www.w3.org/2000/svg"
   xmlns="http://www.w3.org/2000/svg"
   xmlns:sodipodi="http://sodipodi.sourceforge.net/DTD/sodipodi-0.dtd"
   xmlns:inkscape="http://www.inkscape.org/namespaces/inkscape"
   width="32"
   height="32"
   version="1"
   id="svg16"
   sodipodi:docname="rosa.svg"
   inkscape:version="0.92.1 r">
  <metadata
     id="metadata22">
    <rdf:RDF>
      <cc:Work
         rdf:about="">
        <dc:format>image/svg+xml</dc:format>
        <dc:type
           rdf:resource="http://purl.org/dc/dcmitype/StillImage" />
        <dc:title />
      </cc:Work>
    </rdf:RDF>
  </metadata>
  <defs
     id="defs20" />
  <sodipodi:namedview
     pagecolor="#ffffff"
     bordercolor="#666666"
     borderopacity="1"
     objecttolerance="10"
     gridtolerance="10"
     guidetolerance="10"
     inkscape:pageopacity="0"
     inkscape:pageshadow="2"
     inkscape:window-width="1680"
     inkscape:window-height="972"
     id="namedview18"
     showgrid="false"
     inkscape:zoom="10.429825"
     inkscape:cx="9.8546623"
     inkscape:cy="14.452476"
     inkscape:window-x="0"
     inkscape:window-y="0"
     inkscape:window-maximized="1"
     inkscape:current-layer="svg16" />
  <rect
     style="opacity:1;fill:#007300;fill-opacity:0;stroke:none;stroke-width:0.89999998;stroke-miterlimit:4;stroke-dasharray:none;stroke-opacity:1"
     id="rect4483"
     width="32"
     height="32"
     x="0"
     y="0" />
  <path
     style="color:#000000;font-style:normal;font-variant:normal;font-weight:normal;font-stretch:normal;font-size:medium;line-height:normal;font-family:sans-serif;font-variant-ligatures:normal;font-variant-position:normal;font-variant-caps:normal;font-variant-numeric:normal;font-variant-alternates:normal;font-feature-settings:normal;text-indent:0;text-align:start;text-decoration:none;text-decoration-line:none;text-decoration-style:solid;text-decoration-color:#000000;letter-spacing:normal;word-spacing:normal;text-transform:none;writing-mode:lr-tb;direction:ltr;text-orientation:mixed;dominant-baseline:auto;baseline-shift:baseline;text-anchor:start;white-space:normal;shape-padding:0;clip-rule:nonzero;display:inline;overflow:visible;visibility:visible;opacity:1;isolation:auto;mix-blend-mode:normal;color-interpolation:sRGB;color-interpolation-filters:linearRGB;solid-color:#000000;solid-opacity:1;vector-effect:none;fill:#d3dae3;fill-opacity:1;fill-rule:evenodd;stroke:none;stroke-width:0.63632917;stroke-linecap:butt;stroke-linejoin:miter;stroke-miterlimit:4;stroke-dasharray:none;stroke-dashoffset:0;stroke-opacity:1;color-rendering:auto;image-rendering:auto;shape-rendering:auto;text-rendering:auto;enable-background:accumulate"
     d="M 16.203125 2.4355469 C 8.6800555 2.4355469 2.5644531 8.5570856 2.5644531 16.083984 C 2.5644531 23.610885 8.6800645 29.732422 16.203125 29.732422 C 23.726187 29.732422 29.84375 23.610946 29.84375 16.083984 C 29.84375 8.5570248 23.726196 2.4355469 16.203125 2.4355469 z M 16.203125 4.3320312 C 22.700157 4.3320314 27.945312 9.5817891 27.945312 16.083984 C 27.945312 22.586182 22.700168 27.835938 16.203125 27.835938 C 9.7060843 27.835938 4.4589844 22.586181 4.4589844 16.083984 C 4.4589844 9.5817891 9.7060944 4.3320314 16.203125 4.3320312 z M 22.839844 7.8125 L 22.484375 7.84375 L 22.130859 7.8769531 L 21.78125 7.9082031 C 20.060207 8.0639157 19.024466 8.323068 15.310547 8.6113281 C 11.104602 8.9377756 7.6752014 12.345657 7.8535156 16.728516 C 8.0296941 21.058842 11.386727 24.648438 15.738281 24.648438 C 20.088904 24.648438 23.625 21.068694 23.625 16.689453 C 23.6204 14.122791 22.761673 11.404494 22.816406 8.8730469 L 22.839844 7.8125 z M 19.919922 10.042969 C 19.540956 10.795324 19.071344 11.89455 18.257812 14.046875 C 17.241481 16.735734 15.743742 17.96297 14.21875 18.613281 C 12.824612 19.207792 11.411357 19.265375 10.376953 19.253906 C 10.010741 18.467109 9.78615 17.588875 9.7480469 16.652344 C 9.6110473 13.284945 12.166733 10.757327 15.457031 10.501953 C 17.786834 10.321117 18.931824 10.173082 19.919922 10.042969 z M 21.166016 11.658203 C 21.384872 13.534285 21.725955 15.288783 21.728516 16.691406 C 21.728231 20.055416 19.053165 22.75 15.738281 22.75 C 14.114825 22.75 12.68094 22.103254 11.621094 21.044922 C 12.597565 20.979426 13.740227 20.802423 14.925781 20.296875 C 16.846026 19.478018 18.783241 17.794301 19.953125 14.699219 C 20.524055 13.188731 20.877679 12.318238 21.166016 11.658203 z "
     id="path5386-6-2-7-6-6-8-63-5-6" />
</svg>
